X: 1
T:Kilworth Hills  "CCPB Okt-1995"
M:3/4
L:1/8
Q:80
C:Seconds - PM G. S. McLennan
S:Retreat March
K:HP
[| {g}A3/2{d}c/2{g}c2{GdG}c2|
{Gdc}d3/2{e}B/2{gcd}c2{e}A2|
{gBd}B3/2A/2{gAGAG}A4|  !
{gcd}c{e}A{gBd}B4|
{g}A3/2{d}c/2{g}c2{GdG}c2|
{Gdc}d3/2{e}B/2{gcd}c2{e}A2|  !
{gAGAG}A2{gcd}c3B|
{gBd}B{e}A/2{gAGAG}A4|] [|
{Gdc}d3/2c/2{Gdc}d3e|  !
{g}f3/2d/2{gcd}c2{e}A2|
{gBd}B3/2A/2{gAGAG}A4|
{gcd}c2{gBd}B4|  !
{gcd}c3/2B/2{g}A3B|
{GdG}c3/2d/2{gcd}c2{e}A2|
{gAGAG}A2{gcd}c3B|  !
{gBd}B/2{e}A3/2{gAGAG}A4|] [|
{g}B3/2c/2{g}A2{gBG}B2|
{gcd}c3/2B/2{gBd}B2{G}A2|  !
{g}A3/2B/2{GdG}c3{e}A|
{gcd}c2{gBd}B4|
{g}B3/2c/2{Gdc}d2c2|  !
{e}c2{gBd}B2{G}A2|
{gAGAG}A2{gcd}c3B|
{gBd}B/2{e}A3/2{gAGAG}A4|] [|  !
{g}f3/2e/2{Gdc}d3e|
{g}f3/2d/2{gcd}c2{e}A2|
{gde}d3/2c/2{G}A3d|  !
{gcd}c3/2{e}A/2{gBd}B4|
{g}A3/2B/2{GdG}c3{e}A|
{g}c3/2d/2{gcd}c2{e}A2|  !
{gAGAG}A2{gcd}c3B|
{gcd}c/2A3/2{gAGAG}A4|]
